X:1
T:Budin, LM
T:Budin, LM
T:Samuel Sebastian Wesley, 1864
T:Public Domain Courtesy of the Cyber Hymnal™
C:Samuel Sebastian Wesley, 1864
Z:Public Domain
Z:Courtesy of the Cyber Hymnal™
%%score ( 1 2 ) ( 3 4 )
L:1/8
Q:1/4=107
M:none
K:C
V:1 treble 
V:2 treble 
V:3 bass 
V:4 bass 
V:1
 [Ec]2 [EB]2 [CA]2 | [DG]2 [EG]2 [FA]2 [FB]2 | [Ec]2 [Dd]2 [Dc]2 [DB]2 | [DA]2 [DB]2 [EA]2 A2 | %4
 [B,G]2 [Gc]2 [FB]2 [Ec]2 | [Dd]2 [Gd]2 [Ge]2 c2 | [Gd]2 G2 [GA]2 [FB]2 | [Ec]2 [Ge]2 [Ad]2 d2 | %8
 [Ec]2 |] %9
V:2
 x6 | x8 | x8 | x6 (DC) | x8 | x6 (G^F) | x2 G2 x4 | x6 (GF) | x2 |] %9
V:3
 [C,G,]2 [E,G,]2 [F,A,]2 | [B,,D]2 [C,C]2 C2 [D,G,]2 | [C,G,]2 [B,,G,]2 (G,^F,) [G,,G,]2 | %3
 ^F,2 [B,,G,]2 [C,G,]2 [D,F,]2 | G,2 [E,G,]2 [D,G,]2 (G,A,) | [G,B,]2 (A,B,) C2 [A,D]2 | %6
 [G,B,]2 [E,C]2 [F,C]2 [D,D]2 | [A,C]2 [E,C]2 [F,C]2 [G,B,]2 | [C,C]2 |] %9
V:4
 x6 | x4 (F,E,) x2 | x4 A,,2 x2 | (D,C,) x6 | G,2 x2 C,2 x2 | x2 G,2 C2 x2 | x8 | x8 | x2 |] %9

